report_00007_2020-12-11T15:55:29.892Z/network-server-latency/comparison/line/9_vs_10.svg

<svg width="640" height="500" xmlns="http://www.w3.org/2000/svg" xmlns:xlink="http://www.w3.org/1999/xlink"><path fill="#fff" d="M0 0h640v500H0z"/><defs><path id="d" stroke-width=".222" stroke="currentColor" d="M-1-1h2v2h-2z"/><path id="b" stroke-width=".222" stroke="currentColor" d="M0-1.33l-1.33 2h2.66z"/><path id="f" stroke-width=".222" stroke="currentColor" d="M0 1.33L1.265.411.782-1.067l-1.564-.009-.483 1.487z"/><use xlink:href="#b" id="c" stroke="currentColor" transform="rotate(180)"/><use xlink:href="#d" id="e" stroke="currentColor" transform="rotate(45)"/><circle id="a" stroke-width=".222" stroke="currentColor" cx="0" cy="0" r="1"/></defs><g fill="none" color="#000" stroke="currentColor"><path stroke="#000" d="M37.3 445.3h9m568.7 0h-9"/><text transform="translate(29 449.2)" stroke="none" fill="#000" font-family="Arial" font-size="12" text-anchor="end"><tspan>1</tspan></text></g><g fill="none" color="#000" stroke="currentColor"><path stroke="#000" d="M37.3 385h9m568.7 0h-9"/><text transform="translate(29 388.9)" stroke="none" fill="#000" font-family="Arial" font-size="12" text-anchor="end"><tspan>2</tspan></text></g><g fill="none" color="#000" stroke="currentColor"><path stroke="#000" d="M37.3 324.7h9m568.7 0h-9"/><text transform="translate(29 328.6)" stroke="none" fill="#000" font-family="Arial" font-size="12" text-anchor="end"><tspan>3</tspan></text></g><g fill="none" color="#000" stroke="currentColor"><path stroke="#000" d="M37.3 264.5h9m568.7 0h-9"/><text transform="translate(29 268.4)" stroke="none" fill="#000" font-family="Arial" font-size="12" text-anchor="end"><tspan>4</tspan></text></g><g fill="none" color="#000" stroke="currentColor"><path stroke="#000" d="M37.3 204.2h9m568.7 0h-9"/><text transform="translate(29 208.1)" stroke="none" fill="#000" font-family="Arial" font-size="12" text-anchor="end"><tspan>5</tspan></text></g><g fill="none" color="#000" stroke="currentColor"><path stroke="#000" d="M37.3 143.9h9m568.7 0h-9"/><text transform="translate(29 147.8)" stroke="none" fill="#000" font-family="Arial" font-size="12" text-anchor="end"><tspan>6</tspan></text></g><g fill="none" color="#000" stroke="currentColor"><path stroke="#000" d="M37.3 83.6h9m568.7 0h-9"/><text transform="translate(29 87.5)" stroke="none" fill="#000" font-family="Arial" font-size="12" text-anchor="end"><tspan>7</tspan></text></g><g fill="none" color="#000" stroke="currentColor"><path stroke="#000" d="M37.3 23.3h9m568.7 0h-9"/><text transform="translate(29 27.2)" stroke="none" fill="#000" font-family="Arial" font-size="12" text-anchor="end"><tspan>8</tspan></text></g><g fill="none" color="#000" stroke="currentColor"><path stroke="#000" d="M37.3 446v-9m0-418.9v9"/><text transform="translate(37.3 467.9)" stroke="none" fill="#000" font-family="Arial" font-size="12" text-anchor="middle"><tspan>0</tspan></text></g><g fill="none" color="#000" stroke="currentColor"><path stroke="#000" d="M95.7 446v-9m0-418.9v9"/><text transform="translate(95.7 467.9)" stroke="none" fill="#000" font-family="Arial" font-size="12" text-anchor="middle"><tspan>10</tspan></text></g><g fill="none" color="#000" stroke="currentColor"><path stroke="#000" d="M154 446v-9m0-418.9v9"/><text transform="translate(154 467.9)" stroke="none" fill="#000" font-family="Arial" font-size="12" text-anchor="middle"><tspan>20</tspan></text></g><g fill="none" color="#000" stroke="currentColor"><path stroke="#000" d="M212.4 446v-9m0-418.9v9"/><text transform="translate(212.4 467.9)" stroke="none" fill="#000" font-family="Arial" font-size="12" text-anchor="middle"><tspan>30</tspan></text></g><g fill="none" color="#000" stroke="currentColor"><path stroke="#000" d="M270.7 446v-9m0-418.9v9"/><text transform="translate(270.7 467.9)" stroke="none" fill="#000" font-family="Arial" font-size="12" text-anchor="middle"><tspan>40</tspan></text></g><g fill="none" color="#000" stroke="currentColor"><path stroke="#000" d="M329.1 446v-9m0-418.9v9"/><text transform="translate(329.1 467.9)" stroke="none" fill="#000" font-family="Arial" font-size="12" text-anchor="middle"><tspan>50</tspan></text></g><g fill="none" color="#000" stroke="currentColor"><path stroke="#000" d="M387.4 446v-9m0-418.9v9"/><text transform="translate(387.4 467.9)" stroke="none" fill="#000" font-family="Arial" font-size="12" text-anchor="middle"><tspan>60</tspan></text></g><g fill="none" color="#000" stroke="currentColor"><path stroke="#000" d="M445.8 446v-9m0-418.9v9"/><text transform="translate(445.8 467.9)" stroke="none" fill="#000" font-family="Arial" font-size="12" text-anchor="middle"><tspan>70</tspan></text></g><g fill="none" color="#000" stroke="currentColor"><path stroke="#000" d="M504.1 446v-9m0-418.9v9"/><text transform="translate(504.1 467.9)" stroke="none" fill="#000" font-family="Arial" font-size="12" text-anchor="middle"><tspan>80</tspan></text></g><g fill="none" color="#000" stroke="currentColor"><path stroke="#000" d="M562.5 446v-9m0-418.9v9"/><text transform="translate(562.5 467.9)" stroke="none" fill="#000" font-family="Arial" font-size="12" text-anchor="middle"><tspan>90</tspan></text></g><path stroke="#000" d="M37.3 18.1V446H615V18.1H37.3z" fill="none" color="#000"/><text transform="translate(267.3 485.9)" stroke="none" fill="#000" font-family="Arial" font-size="12" text-anchor="end" color="#000"><tspan>pages+cached+noexternal+nocss</tspan></text><path stroke="#9400D3" d="M275.6 482h42.2M37.3 231.6l5.8-24.4 5.9 25.5 5.8 29.1 5.8-70.5 5.9 26.3 5.8 26.9 5.8 33.6L84 230l5.8 8.2 5.9-21.1 5.8 7 5.8-11.1 5.9-11.9 5.8 20.2 5.8 7.5 5.9 3.4 5.8 18.4 5.8-24.5 5.9-58.5 5.8 27.7 5.8 46.4 5.9-37.6 5.8 1.8 5.8 50.5 5.9 12.7 5.8-59.9 5.9-66.3 5.8 99.8 5.8-35.7 5.9-17.3 5.8 30.6 5.8 16.9 5.9-6.8 5.8-10.2 5.8-69.1 5.9 58.4 5.8 5 5.8 6.1 5.9 60.1 5.8-9.3 5.8-37.7 5.9 60.4 5.8-79.5 5.9 25.6 5.8 27.1 5.8-8.5 5.9-5.7 5.8-85.9 5.8 89.1 5.9-.7 5.8-21.7 5.8.8 5.9-14.9 5.8-23.1 5.8 5.7 5.9 81.6 5.8-55.8 5.9 22.4 5.8-2.1 5.8 16.2 5.9-18.9 5.8 10 5.8-34.4 5.9-7.2 5.8 14.7 5.8-36.4 5.9 28 5.8-8.1 5.8 4.2 5.9 72.1 5.8-71.9 5.8 15.8 5.9-17.3 5.8-1.6L475 234l5.8-40.2 5.8 2.1 5.9 25.2 5.8-3.3 5.8 44.6 5.9-56.5 5.8 18.1 5.8-3.8 5.9 9.7 5.8 30.5 5.8-40.4 5.9 22.7 5.8-47.3 5.8 69.3 5.9-19.2 5.8-20.3 5.9 4L580 262l5.8-23.7 5.9.3 5.8-16.4 5.8 3.1 5.9-4.4L615 209" fill="none" color="#000"/><text transform="translate(566.8 485.9)" stroke="none" fill="#000" font-family="Arial" font-size="12" text-anchor="end" color="#000"><tspan>pages+cached+noexternal+nojs</tspan></text><path stroke="#009E73" d="M575.1 482h42.2m-580-285.1l5.8-67.3L49 76.5l5.8 29.6 5.8 58.4 5.9 28.2 5.8-30.8 5.8-70.5 5.9 26 5.8 36.8 5.9-62.6 5.8 83.2 5.8-7 5.9-26L119 155l5.8-12.1 5.9 45.5 5.8-87.9 5.8 61.8 5.9-20.5 5.8 6.9 5.8-84.2 5.9 62.6 5.8 33.9 5.8-134.7 5.9 120.3L189 163l5.9-58.4 5.8 20.2 5.8 60.1 5.9-81 5.8 139.6 5.8 102.9 5.9-181.3 5.8 8.8 5.8-36.7 5.9 41.6 5.8-42.3L259 28.8l5.9 127.7 5.8 38.3 5.8 13.1 5.9 184.8L288.2 99l5.9 66.4 5.8-80.8 5.8 50 5.9 43.4 5.8-28 5.8 63.1 5.9 70.6 5.8-113.4 5.8-113.1 5.9 137.9 5.8 9.5 5.8 233.2 5.9-299.1 5.8 39.2 5.9-102.1 5.8 26.3 5.8 83.1 5.9-80.1 5.8 75.1 5.8-61.2 5.9 29.7 5.8-38.3 5.8 15 5.9-23.7 5.8 82.4 5.8.4 5.9-9.7 5.8 3.8 5.8-18.4 5.9-91.3 5.8 64.1 5.9-.3 5.8 35.9 5.8-4.6 5.9-9.5 5.8-20.4 5.8-78.7L510 79l5.8 75.7 5.8 17.5 5.9-1.6 5.8-77.5 5.8 23.4 5.9 112.8 5.8-78.9 5.8-7.3 5.9 14 5.8-42.6 5.9 25.2 5.8 39.5 5.8-51.8 5.9 26.5 5.8-50.2 5.8 82.2 5.9 12 5.8-73" fill="none" color="#000"/><g fill="none" color="#000" stroke="currentColor"><path stroke="#000" d="M37.3 18.1V446H615V18.1H37.3z"/></g></svg>

<?xml version="1.0" encoding="utf-8"  standalone="no"?>
<svg 
 width="640" height="500"
 viewBox="0 0 640 500"
 xmlns="http://www.w3.org/2000/svg"
 xmlns:xlink="http://www.w3.org/1999/xlink"
>

<title>Gnuplot</title>
<desc>Produced by GNUPLOT 5.4 patchlevel 0 </desc>

<g id="gnuplot_canvas">

<rect x="0" y="0" width="640" height="500" fill="#ffffff"/>
<defs>

	<circle id='gpDot' r='0.5' stroke-width='0.5' stroke='currentColor'/>
	<path id='gpPt0' stroke-width='0.222' stroke='currentColor' d='M-1,0 h2 M0,-1 v2'/>
	<path id='gpPt1' stroke-width='0.222' stroke='currentColor' d='M-1,-1 L1,1 M1,-1 L-1,1'/>
	<path id='gpPt2' stroke-width='0.222' stroke='currentColor' d='M-1,0 L1,0 M0,-1 L0,1 M-1,-1 L1,1 M-1,1 L1,-1'/>
	<rect id='gpPt3' stroke-width='0.222' stroke='currentColor' x='-1' y='-1' width='2' height='2'/>
	<rect id='gpPt4' stroke-width='0.222' stroke='currentColor' fill='currentColor' x='-1' y='-1' width='2' height='2'/>
	<circle id='gpPt5' stroke-width='0.222' stroke='currentColor' cx='0' cy='0' r='1'/>
	<use xlink:href='#gpPt5' id='gpPt6' fill='currentColor' stroke='none'/>
	<path id='gpPt7' stroke-width='0.222' stroke='currentColor' d='M0,-1.33 L-1.33,0.67 L1.33,0.67 z'/>
	<use xlink:href='#gpPt7' id='gpPt8' fill='currentColor' stroke='none'/>
	<use xlink:href='#gpPt7' id='gpPt9' stroke='currentColor' transform='rotate(180)'/>
	<use xlink:href='#gpPt9' id='gpPt10' fill='currentColor' stroke='none'/>
	<use xlink:href='#gpPt3' id='gpPt11' stroke='currentColor' transform='rotate(45)'/>
	<use xlink:href='#gpPt11' id='gpPt12' fill='currentColor' stroke='none'/>
	<path id='gpPt13' stroke-width='0.222' stroke='currentColor' d='M0,1.330 L1.265,0.411 L0.782,-1.067 L-0.782,-1.076 L-1.265,0.411 z'/>
	<use xlink:href='#gpPt13' id='gpPt14' fill='currentColor' stroke='none'/>
	<filter id='textbox' filterUnits='objectBoundingBox' x='0' y='0' height='1' width='1'>
	  <feFlood flood-color='#FFFFFF' flood-opacity='1' result='bgnd'/>
	  <feComposite in='SourceGraphic' in2='bgnd' operator='atop'/>
	</filter>
	<filter id='greybox' filterUnits='objectBoundingBox' x='0' y='0' height='1' width='1'>
	  <feFlood flood-color='lightgrey' flood-opacity='1' result='grey'/>
	  <feComposite in='SourceGraphic' in2='grey' operator='atop'/>
	</filter>
</defs>
<g fill="none" color="#FFFFFF" stroke="black" stroke-width="1.00" stroke-linecap="butt" stroke-linejoin="miter">
</g>
<g fill="none" color="black" stroke="currentColor" stroke-width="1.00" stroke-linecap="butt" stroke-linejoin="miter">
	<path stroke='black'  d='M37.3,445.3 L46.3,445.3 M615.0,445.3 L606.0,445.3  '/>	<g transform="translate(29.0,449.2)" stroke="none" fill="black" font-family="Arial" font-size="12.00"  text-anchor="end">
		<text><tspan font-family="Arial" > 1</tspan></text>
	</g>
</g>
<g fill="none" color="black" stroke="currentColor" stroke-width="1.00" stroke-linecap="butt" stroke-linejoin="miter">
	<path stroke='black'  d='M37.3,385.0 L46.3,385.0 M615.0,385.0 L606.0,385.0  '/>	<g transform="translate(29.0,388.9)" stroke="none" fill="black" font-family="Arial" font-size="12.00"  text-anchor="end">
		<text><tspan font-family="Arial" > 2</tspan></text>
	</g>
</g>
<g fill="none" color="black" stroke="currentColor" stroke-width="1.00" stroke-linecap="butt" stroke-linejoin="miter">
	<path stroke='black'  d='M37.3,324.7 L46.3,324.7 M615.0,324.7 L606.0,324.7  '/>	<g transform="translate(29.0,328.6)" stroke="none" fill="black" font-family="Arial" font-size="12.00"  text-anchor="end">
		<text><tspan font-family="Arial" > 3</tspan></text>
	</g>
</g>
<g fill="none" color="black" stroke="currentColor" stroke-width="1.00" stroke-linecap="butt" stroke-linejoin="miter">
	<path stroke='black'  d='M37.3,264.5 L46.3,264.5 M615.0,264.5 L606.0,264.5  '/>	<g transform="translate(29.0,268.4)" stroke="none" fill="black" font-family="Arial" font-size="12.00"  text-anchor="end">
		<text><tspan font-family="Arial" > 4</tspan></text>
	</g>
</g>
<g fill="none" color="black" stroke="currentColor" stroke-width="1.00" stroke-linecap="butt" stroke-linejoin="miter">
	<path stroke='black'  d='M37.3,204.2 L46.3,204.2 M615.0,204.2 L606.0,204.2  '/>	<g transform="translate(29.0,208.1)" stroke="none" fill="black" font-family="Arial" font-size="12.00"  text-anchor="end">
		<text><tspan font-family="Arial" > 5</tspan></text>
	</g>
</g>
<g fill="none" color="black" stroke="currentColor" stroke-width="1.00" stroke-linecap="butt" stroke-linejoin="miter">
	<path stroke='black'  d='M37.3,143.9 L46.3,143.9 M615.0,143.9 L606.0,143.9  '/>	<g transform="translate(29.0,147.8)" stroke="none" fill="black" font-family="Arial" font-size="12.00"  text-anchor="end">
		<text><tspan font-family="Arial" > 6</tspan></text>
	</g>
</g>
<g fill="none" color="black" stroke="currentColor" stroke-width="1.00" stroke-linecap="butt" stroke-linejoin="miter">
	<path stroke='black'  d='M37.3,83.6 L46.3,83.6 M615.0,83.6 L606.0,83.6  '/>	<g transform="translate(29.0,87.5)" stroke="none" fill="black" font-family="Arial" font-size="12.00"  text-anchor="end">
		<text><tspan font-family="Arial" > 7</tspan></text>
	</g>
</g>
<g fill="none" color="black" stroke="currentColor" stroke-width="1.00" stroke-linecap="butt" stroke-linejoin="miter">
	<path stroke='black'  d='M37.3,23.3 L46.3,23.3 M615.0,23.3 L606.0,23.3  '/>	<g transform="translate(29.0,27.2)" stroke="none" fill="black" font-family="Arial" font-size="12.00"  text-anchor="end">
		<text><tspan font-family="Arial" > 8</tspan></text>
	</g>
</g>
<g fill="none" color="black" stroke="currentColor" stroke-width="1.00" stroke-linecap="butt" stroke-linejoin="miter">
	<path stroke='black'  d='M37.3,446.0 L37.3,437.0 M37.3,18.1 L37.3,27.1  '/>	<g transform="translate(37.3,467.9)" stroke="none" fill="black" font-family="Arial" font-size="12.00"  text-anchor="middle">
		<text><tspan font-family="Arial" > 0</tspan></text>
	</g>
</g>
<g fill="none" color="black" stroke="currentColor" stroke-width="1.00" stroke-linecap="butt" stroke-linejoin="miter">
	<path stroke='black'  d='M95.7,446.0 L95.7,437.0 M95.7,18.1 L95.7,27.1  '/>	<g transform="translate(95.7,467.9)" stroke="none" fill="black" font-family="Arial" font-size="12.00"  text-anchor="middle">
		<text><tspan font-family="Arial" > 10</tspan></text>
	</g>
</g>
<g fill="none" color="black" stroke="currentColor" stroke-width="1.00" stroke-linecap="butt" stroke-linejoin="miter">
	<path stroke='black'  d='M154.0,446.0 L154.0,437.0 M154.0,18.1 L154.0,27.1  '/>	<g transform="translate(154.0,467.9)" stroke="none" fill="black" font-family="Arial" font-size="12.00"  text-anchor="middle">
		<text><tspan font-family="Arial" > 20</tspan></text>
	</g>
</g>
<g fill="none" color="black" stroke="currentColor" stroke-width="1.00" stroke-linecap="butt" stroke-linejoin="miter">
	<path stroke='black'  d='M212.4,446.0 L212.4,437.0 M212.4,18.1 L212.4,27.1  '/>	<g transform="translate(212.4,467.9)" stroke="none" fill="black" font-family="Arial" font-size="12.00"  text-anchor="middle">
		<text><tspan font-family="Arial" > 30</tspan></text>
	</g>
</g>
<g fill="none" color="black" stroke="currentColor" stroke-width="1.00" stroke-linecap="butt" stroke-linejoin="miter">
	<path stroke='black'  d='M270.7,446.0 L270.7,437.0 M270.7,18.1 L270.7,27.1  '/>	<g transform="translate(270.7,467.9)" stroke="none" fill="black" font-family="Arial" font-size="12.00"  text-anchor="middle">
		<text><tspan font-family="Arial" > 40</tspan></text>
	</g>
</g>
<g fill="none" color="black" stroke="currentColor" stroke-width="1.00" stroke-linecap="butt" stroke-linejoin="miter">
	<path stroke='black'  d='M329.1,446.0 L329.1,437.0 M329.1,18.1 L329.1,27.1  '/>	<g transform="translate(329.1,467.9)" stroke="none" fill="black" font-family="Arial" font-size="12.00"  text-anchor="middle">
		<text><tspan font-family="Arial" > 50</tspan></text>
	</g>
</g>
<g fill="none" color="black" stroke="currentColor" stroke-width="1.00" stroke-linecap="butt" stroke-linejoin="miter">
	<path stroke='black'  d='M387.4,446.0 L387.4,437.0 M387.4,18.1 L387.4,27.1  '/>	<g transform="translate(387.4,467.9)" stroke="none" fill="black" font-family="Arial" font-size="12.00"  text-anchor="middle">
		<text><tspan font-family="Arial" > 60</tspan></text>
	</g>
</g>
<g fill="none" color="black" stroke="currentColor" stroke-width="1.00" stroke-linecap="butt" stroke-linejoin="miter">
	<path stroke='black'  d='M445.8,446.0 L445.8,437.0 M445.8,18.1 L445.8,27.1  '/>	<g transform="translate(445.8,467.9)" stroke="none" fill="black" font-family="Arial" font-size="12.00"  text-anchor="middle">
		<text><tspan font-family="Arial" > 70</tspan></text>
	</g>
</g>
<g fill="none" color="black" stroke="currentColor" stroke-width="1.00" stroke-linecap="butt" stroke-linejoin="miter">
	<path stroke='black'  d='M504.1,446.0 L504.1,437.0 M504.1,18.1 L504.1,27.1  '/>	<g transform="translate(504.1,467.9)" stroke="none" fill="black" font-family="Arial" font-size="12.00"  text-anchor="middle">
		<text><tspan font-family="Arial" > 80</tspan></text>
	</g>
</g>
<g fill="none" color="black" stroke="currentColor" stroke-width="1.00" stroke-linecap="butt" stroke-linejoin="miter">
	<path stroke='black'  d='M562.5,446.0 L562.5,437.0 M562.5,18.1 L562.5,27.1  '/>	<g transform="translate(562.5,467.9)" stroke="none" fill="black" font-family="Arial" font-size="12.00"  text-anchor="middle">
		<text><tspan font-family="Arial" > 90</tspan></text>
	</g>
</g>
<g fill="none" color="black" stroke="currentColor" stroke-width="1.00" stroke-linecap="butt" stroke-linejoin="miter">
</g>
<g fill="none" color="black" stroke="currentColor" stroke-width="1.00" stroke-linecap="butt" stroke-linejoin="miter">
	<path stroke='black'  d='M37.3,18.1 L37.3,446.0 L615.0,446.0 L615.0,18.1 L37.3,18.1 Z  '/></g>
<g fill="none" color="black" stroke="currentColor" stroke-width="1.00" stroke-linecap="butt" stroke-linejoin="miter">
</g>
	<g id="gnuplot_plot_1" ><title>pages+cached+noexternal+nocss</title>
<g fill="none" color="black" stroke="currentColor" stroke-width="1.00" stroke-linecap="butt" stroke-linejoin="miter">
	<g transform="translate(267.3,485.9)" stroke="none" fill="black" font-family="Arial" font-size="12.00"  text-anchor="end">
		<text><tspan font-family="Arial" >pages+cached+noexternal+nocss</tspan></text>
	</g>
</g>
<g fill="none" color="black" stroke="currentColor" stroke-width="1.00" stroke-linecap="butt" stroke-linejoin="miter">
	<path stroke='rgb(148,   0, 211)'  d='M275.6,482.0 L317.8,482.0 M37.3,231.6 L43.1,207.2 L49.0,232.7 L54.8,261.8 L60.6,191.3 L66.5,217.6
		L72.3,244.5 L78.1,278.1 L84.0,230.0 L89.8,238.2 L95.7,217.1 L101.5,224.1 L107.3,213.0 L113.2,201.1
		L119.0,221.3 L124.8,228.8 L130.7,232.2 L136.5,250.6 L142.3,226.1 L148.2,167.6 L154.0,195.3 L159.8,241.7
		L165.7,204.1 L171.5,205.9 L177.3,256.4 L183.2,269.1 L189.0,209.2 L194.9,142.9 L200.7,242.7 L206.5,207.0
		L212.4,189.7 L218.2,220.3 L224.0,237.2 L229.9,230.4 L235.7,220.2 L241.5,151.1 L247.4,209.5 L253.2,214.5
		L259.0,220.6 L264.9,280.7 L270.7,271.4 L276.5,233.7 L282.4,294.1 L288.2,214.6 L294.1,240.2 L299.9,267.3
		L305.7,258.8 L311.6,253.1 L317.4,167.2 L323.2,256.3 L329.1,255.6 L334.9,233.9 L340.7,234.7 L346.6,219.8
		L352.4,196.7 L358.2,202.4 L364.1,284.0 L369.9,228.2 L375.8,250.6 L381.6,248.5 L387.4,264.7 L393.3,245.8
		L399.1,255.8 L404.9,221.4 L410.8,214.2 L416.6,228.9 L422.4,192.5 L428.3,220.5 L434.1,212.4 L439.9,216.6
		L445.8,288.7 L451.6,216.8 L457.4,232.6 L463.3,215.3 L469.1,213.7 L475.0,234.0 L480.8,193.8 L486.6,195.9
		L492.5,221.1 L498.3,217.8 L504.1,262.4 L510.0,205.9 L515.8,224.0 L521.6,220.2 L527.5,229.9 L533.3,260.4
		L539.1,220.0 L545.0,242.7 L550.8,195.4 L556.6,264.7 L562.5,245.5 L568.3,225.2 L574.2,229.2 L580.0,262.0
		L585.8,238.3 L591.7,238.6 L597.5,222.2 L603.3,225.3 L609.2,220.9 L615.0,209.0  '/></g>
	</g>
	<g id="gnuplot_plot_2" ><title>pages+cached+noexternal+nojs</title>
<g fill="none" color="black" stroke="currentColor" stroke-width="1.00" stroke-linecap="butt" stroke-linejoin="miter">
	<g transform="translate(566.8,485.9)" stroke="none" fill="black" font-family="Arial" font-size="12.00"  text-anchor="end">
		<text><tspan font-family="Arial" >pages+cached+noexternal+nojs</tspan></text>
	</g>
</g>
<g fill="none" color="black" stroke="currentColor" stroke-width="1.00" stroke-linecap="butt" stroke-linejoin="miter">
	<path stroke='rgb(  0, 158, 115)'  d='M575.1,482.0 L617.3,482.0 M37.3,196.9 L43.1,129.6 L49.0,76.5 L54.8,106.1 L60.6,164.5 L66.5,192.7
		L72.3,161.9 L78.1,91.4 L84.0,117.4 L89.8,154.2 L95.7,91.6 L101.5,174.8 L107.3,167.8 L113.2,141.8
		L119.0,155.0 L124.8,142.9 L130.7,188.4 L136.5,100.5 L142.3,162.3 L148.2,141.8 L154.0,148.7 L159.8,64.5
		L165.7,127.1 L171.5,161.0 L177.3,26.3 L183.2,146.6 L189.0,163.0 L194.9,104.6 L200.7,124.8 L206.5,184.9
		L212.4,103.9 L218.2,243.5 L224.0,346.4 L229.9,165.1 L235.7,173.9 L241.5,137.2 L247.4,178.8 L253.2,136.5
		L259.0,28.8 L264.9,156.5 L270.7,194.8 L276.5,207.9 L282.4,392.7 L288.2,99.0 L294.1,165.4 L299.9,84.6
		L305.7,134.6 L311.6,178.0 L317.4,150.0 L323.2,213.1 L329.1,283.7 L334.9,170.3 L340.7,57.2 L346.6,195.1
		L352.4,204.6 L358.2,437.8 L364.1,138.7 L369.9,177.9 L375.8,75.8 L381.6,102.1 L387.4,185.2 L393.3,105.1
		L399.1,180.2 L404.9,119.0 L410.8,148.7 L416.6,110.4 L422.4,125.4 L428.3,101.7 L434.1,184.1 L439.9,184.5
		L445.8,174.8 L451.6,178.6 L457.4,160.2 L463.3,68.9 L469.1,133.0 L475.0,132.7 L480.8,168.6 L486.6,164.0
		L492.5,154.5 L498.3,134.1 L504.1,55.4 L510.0,79.0 L515.8,154.7 L521.6,172.2 L527.5,170.6 L533.3,93.1
		L539.1,116.5 L545.0,229.3 L550.8,150.4 L556.6,143.1 L562.5,157.1 L568.3,114.5 L574.2,139.7 L580.0,179.2
		L585.8,127.4 L591.7,153.9 L597.5,103.7 L603.3,185.9 L609.2,197.9 L615.0,124.9  '/></g>
	</g>
<g fill="none" color="#FFFFFF" stroke="rgb(  0, 158, 115)" stroke-width="2.00" stroke-linecap="butt" stroke-linejoin="miter">
</g>
<g fill="none" color="black" stroke="currentColor" stroke-width="2.00" stroke-linecap="butt" stroke-linejoin="miter">
</g>
<g fill="none" color="black" stroke="black" stroke-width="1.00" stroke-linecap="butt" stroke-linejoin="miter">
</g>
<g fill="none" color="black" stroke="currentColor" stroke-width="1.00" stroke-linecap="butt" stroke-linejoin="miter">
	<path stroke='black'  d='M37.3,18.1 L37.3,446.0 L615.0,446.0 L615.0,18.1 L37.3,18.1 Z  '/></g>
<g fill="none" color="black" stroke="currentColor" stroke-width="1.00" stroke-linecap="butt" stroke-linejoin="miter">
</g>
</g>
</svg>
